img/contracts__img-exe.svg

<svg width="39" height="39" viewBox="0 0 39 39" fill="none" xmlns="http://www.w3.org/2000/svg">
<g opacity="0.8">
<path d="M25.7574 0H5.54566C4.98295 0 4.52679 0.456161 4.52679 1.34132V38.3036C4.52679 38.5438 4.98295 39 5.54566 39H33.4543C34.0171 39 34.4732 38.5438 34.4732 38.3036V9.03825C34.4732 8.55354 34.4085 8.39754 34.2942 8.28263L26.1906 0.178982C26.0757 0.0647679 25.9197 0 25.7574 0Z" fill="#E9E9E0"/>
<path d="M26.1161 0.105225V8.35721H34.3681L26.1161 0.105225Z" fill="#D9D7CA"/>
<path d="M33.4543 38.9999H5.54566C4.98295 38.9999 4.52679 38.5438 4.52679 37.9811V27.1606H34.4732V37.9811C34.4732 38.5438 34.0171 38.9999 33.4543 38.9999Z" fill="#B8B8B8"/>
<path d="M11.8964 30.7602V32.9692H14.8291V33.7499H11.8964V36.0447H15.1243V36.911H10.7347V29.8938H15.1243V30.7602H11.8964Z" fill="white"/>
<path d="M19.9039 33.5017L21.6847 36.9107H20.3615L19.2472 34.2636H19.1518L17.9518 36.9107H16.6286L18.4094 33.5017L16.5144 29.8928H17.8188L19.0564 32.7496H19.1518L20.4945 29.8928H21.7989L19.9039 33.5017Z" fill="white"/>
<path d="M24.5603 30.7599V32.969H27.4929V33.7497H24.5603V36.0444H27.7875V36.9108H23.3979V29.8936H27.7875V30.7599H24.5603Z" fill="white"/>
<path d="M23.3304 22.2856C23.2614 22.2856 23.1911 22.2752 23.1221 22.2536C22.7551 22.1387 22.5504 21.748 22.6653 21.3809L26.1474 10.2381C26.2623 9.87107 26.653 9.66632 27.02 9.78123C27.3871 9.89614 27.5918 10.2868 27.4769 10.6539L23.9948 21.7967C23.9021 22.0948 23.627 22.2856 23.3304 22.2856Z" fill="#B8B8B8"/>
<path d="M20.1964 14.6249C20.7734 14.6249 21.2411 14.1572 21.2411 13.5803C21.2411 13.0033 20.7734 12.5356 20.1964 12.5356C19.6195 12.5356 19.1518 13.0033 19.1518 13.5803C19.1518 14.1572 19.6195 14.6249 20.1964 14.6249Z" fill="#B8B8B8"/>
<path d="M20.1964 19.4999C20.7734 19.4999 21.2411 19.0322 21.2411 18.4553C21.2411 17.8783 20.7734 17.4106 20.1964 17.4106C19.6195 17.4106 19.1518 17.8783 19.1518 18.4553C19.1518 19.0322 19.6195 19.4999 20.1964 19.4999Z" fill="#B8B8B8"/>
<path d="M16.3661 20.8928H14.9732C12.285 20.8928 10.0982 18.706 10.0982 16.0178C10.0982 13.3296 12.285 11.1428 14.9732 11.1428H16.3661C16.7505 11.1428 17.0625 11.4548 17.0625 11.8393C17.0625 12.2237 16.7505 12.5357 16.3661 12.5357H14.9732C13.0532 12.5357 11.4911 14.0978 11.4911 16.0178C11.4911 17.9379 13.0532 19.5 14.9732 19.5H16.3661C16.7505 19.5 17.0625 19.812 17.0625 20.1964C17.0625 20.5808 16.7505 20.8928 16.3661 20.8928Z" fill="#B8B8B8"/>
</g>
</svg>

<svg width="39" height="39" viewBox="0 0 39 39" fill="none" xmlns="http://www.w3.org/2000/svg"><g opacity=".8"><path d="M25.757 0H5.546c-.563 0-1.02.456-1.02 1.341v36.963c0 .24.457.696 1.02.696h27.908c.563 0 1.02-.456 1.02-.696V9.038c0-.484-.066-.64-.18-.755L26.191.179A.615.615 0 0025.757 0z" fill="#E9E9E0"/><path d="M26.116.105v8.252h8.252L26.116.105z" fill="#D9D7CA"/><path d="M33.454 39H5.546a1.019 1.019 0 01-1.02-1.019v-10.82h29.947v10.82c0 .563-.456 1.019-1.019 1.019z" fill="#B8B8B8"/><path d="M11.896 30.76v2.21h2.933v.78h-2.933v2.295h3.228v.866h-4.39v-7.017h4.39v.866h-3.228zm8.008 2.742l1.78 3.409h-1.323l-1.114-2.647h-.095l-1.2 2.647h-1.323l1.78-3.41-1.895-3.608h1.305l1.237 2.857h.096l1.342-2.857H21.8l-1.895 3.609zm4.656-2.742v2.209h2.933v.78H24.56v2.295h3.228v.867h-4.39v-7.017h4.39v.866H24.56z" fill="#fff"/><path d="M23.33 22.286a.697.697 0 01-.665-.905l3.482-11.143a.697.697 0 011.33.416l-3.482 11.143a.696.696 0 01-.665.489zm-3.134-7.661a1.045 1.045 0 100-2.09 1.045 1.045 0 000 2.09zm0 4.875a1.045 1.045 0 100-2.09 1.045 1.045 0 000 2.09zm-3.83 1.393h-1.393a4.88 4.88 0 01-4.875-4.875 4.88 4.88 0 014.875-4.875h1.393a.697.697 0 010 1.393h-1.393a3.486 3.486 0 00-3.482 3.482 3.486 3.486 0 003.482 3.482h1.393a.697.697 0 010 1.393z" fill="#B8B8B8"/></g></svg>
